X:1
T:Ama Giesu
T:André Vierendeels
T:Source:  Melody from "Corona di Sacre canzoni o Laude spirituali" (Tenor voice) Firenze---Eredi Francesco Orofri---1689. Editor : André Vierendeels (04/12/17). Notes : Original clef : C4, other voices supplied editorially Original note values have been quartered Music compiled by Matteo Cofrati.    
T:Ama Giesu
T:©
T:©
C:André Vierendeels
Z:©
%%score [ 1 2 3 ]
L:1/8
Q:1/4=120
M:3/4
K:F
V:1 treble nm="Soprano" snm="S"
V:2 treble nm="Alto" snm="A"
V:3 treble-8 nm="Tenor" snm="T"
V:1
"^1)" A2 d2 e2 | f6 | c2 d2 d2 | c4 e2 | A2 G2 B2 | c2 c2 G2 | d4 d2 | B6 :: c2 c2 G2 | G2 G2 B2 | %10
w: A- ma Gie-|su|do- na gli'l|co- re,|ch'è tut- to'a-|mo- re, che|bra- mi|piu,|o- gni dol-|cez- za, o-|
w: E Re del|Ciel,|quel Par- go-|let- to,|che con di-|let- to sott'|u- man|vel,|scher- za'e gio-|i- sce, d'a-|
 d4 c2 | c4 c2 | A2 A2 G2 |"^+Ama Giesu" A4 A2 :| %14
w: gni gran-|dez- za,|in se rac-|chiu- de.|
w: mor lan|gui- sce,|ap- pe- na|na- to.|
V:2
"^2)""^1)" F2 A2 A2 | A4 A2- | A2 G2 G2 | E4 G2 | F2 D2 D2 | E2 E2 D2 | G4 ^F2 | G6 :: E2 F2 D2 | %9
w: A- ma Gie-|su, do-|* na gli'l|co- re,|ch'è tut- to'a-|mo- re, che|bra- mi|piu,|o- gni dol-|
w: Mi- ra'l se-|ren di|_ qiel bel|vi- so,|tuo Pa- ra-|di- so la-|scia'l ter-|ren,|scher- za'e gio-|
 E2 E2 D2 | G4 E2 | A4 A2 | F2 E2 E2 |"^+Ama Gie""^+Ama Giesu" ^F4 F2 :| %14
w: cez- za, o-|gni gran-|dez- za,|in se rac-|chiu- de.|
w: i- sce, d'a-|mor lan-|gui- sce,|ap- pe- na|na- to.|
V:3
"^3)""^1)""^4)" d2 d2 ^c2 | d6 | e2 c2 =B2 | c4 c2 | d2 B2 B2 | A2 A2 B2 | B2 A3 G | G6 :: %8
w: A- ma Gie-|su,|do- na gli'l|co- re,|ch'è tut- to'a-|mo- re, che|bra- * mi|piu,|
w: O gran stu-|por!|In su'l fien|gia- ce,|il Re di|pa- ce, il|cre- a- *|tor,|
 A2 A2 B2 | c2 c2 G2 | G4 A2 | F4 F2 | d2 d3 ^c |"^+Ama Giesu" d4 d2 :| %14
w: o- gni dol-|cez- za, o-|gni gran-|dez- za,|in se rac-|chiu- de.|
w: o- gnun l'o-|no- ri, a-|gnun l'a-|do- ri|ch'è no- stro|Di- o.|

